icons/planless.svg

<?xml version="1.0" encoding="UTF-8"?>
<svg width="256px" height="330px" viewBox="0 0 256 330" version="1.1" xmlns="http://www.w3.org/2000/svg" xmlns:xlink="http://www.w3.org/1999/xlink" preserveAspectRatio="xMidYMid">
    <g>
        <path d="M36.5704787,0 L106.531394,0 L176.49231,0 C200.872629,0 222.072907,10.0701318 236.383094,25.9703399 C250.693281,41.870548 258.113378,64.6608463 255.463344,89.0411654 C232.143038,89.0411654 208.822733,89.0411654 185.502428,89.0411654 C162.182123,89.0411654 138.861818,89.0411654 115.541512,89.0411654 C91.1611932,89.0411654 69.9609157,78.9710336 55.6507284,63.0708255 C41.870548,46.6406105 33.920444,24.3803191 36.5704787,0 Z" fill="#F7CE12"></path>
        <path d="M15.9002081,189.212477 L85.8611238,189.212477 L155.82204,189.212477 C180.202359,189.212477 203.522664,179.142345 221.5429,163.242137 C239.563136,147.341929 251.753295,124.55163 254.933337,100.171311 C231.613032,100.171311 208.292726,100.171311 184.972421,100.171311 C161.652116,100.171311 138.331811,100.171311 115.011505,100.171311 C90.6311863,100.171311 67.310881,110.241443 49.2906452,126.141651 C31.2704093,142.041859 18.5502428,164.302151 15.9002081,189.212477 Z" fill="#F0572A"></path>
        <path d="M115.011505,100.171311 C112.361471,123.491616 109.711436,146.811922 107.061401,170.132227 C104.411367,193.452532 101.761332,216.772837 99.1112972,240.093143 C96.4612626,264.473462 83.7410961,286.733753 65.7208602,303.163968 C47.7006243,319.064176 24.3803191,329.134308 0,329.134308 L7.95010406,259.173392 C10.6001387,235.853087 13.2501734,212.532782 15.9002081,189.212477 C18.5502428,164.832157 31.2704093,142.571866 48.7606382,126.141651 C66.7808741,109.711436 90.1011793,100.171311 115.011505,100.171311 Z" fill="#2ABDE1"></path>
        <path d="M115.011505,100.171311 C112.361471,123.491616 109.711436,146.811922 107.061401,170.132227 C106.337624,176.501471 105.613846,182.870716 104.890068,189.23996 C104.890068,189.23996 15.9002081,189.212477 15.9002081,189.212477 C18.5502428,164.832157 31.2704093,142.571866 48.7606382,126.141651 C66.7808741,109.711436 90.1011793,100.171311 115.011505,100.171311 Z" fill="#1C519F"></path>
    </g>
</svg>

<svg xmlns="http://www.w3.org/2000/svg" viewBox="0 0 255.994 329.134">
  <path fill="#f7ce12" d="M36.57 0h139.922c24.38 0 45.58 10.07 59.891 25.97 14.31 15.9 21.73 38.69 19.08 63.071H115.542c-24.38 0-45.581-10.07-59.891-25.97C41.87 46.64 33.92 24.38 36.57 0z"/>
  <path fill="#f0572a" d="M15.9 189.212h139.922c24.38 0 47.7-10.07 65.72-25.97 18.021-15.9 30.211-38.69 33.391-63.07H115.012c-24.38 0-47.701 10.07-65.721 25.97-18.02 15.9-30.74 38.16-33.39 63.07z"/>
  <path fill="#2abde1" d="m115.012 100.171-7.95 69.961-7.95 69.961c-2.65 24.38-15.37 46.64-33.391 63.071-18.02 15.9-41.34 25.97-65.721 25.97l7.95-69.96 7.95-69.962c2.65-24.38 15.37-46.64 32.86-63.07 18.02-16.43 41.341-25.97 66.252-25.97z"/>
  <path fill="#1c519f" d="m115.012 100.171-7.95 69.961-2.172 19.108-88.99-.028c2.65-24.38 15.37-46.64 32.86-63.07 18.02-16.43 41.341-25.97 66.252-25.97z"/>
</svg>
